icons/circle/48/addressbook.svg

<svg xmlns="http://www.w3.org/2000/svg" viewBox="0 0 48 48">
  <defs>
    <linearGradient id="a" x1="1" x2="47" gradientUnits="userSpaceOnUse" gradientTransform="rotate(-90 24 24)">
      <stop stop-color="#ad897f"/>
      <stop offset="1" stop-color="#b5948b"/>
    </linearGradient>
  </defs>
  <path d="M36.31 5c5.859 4.062 9.688 10.831 9.688 18.5 0 12.426-10.07 22.5-22.5 22.5-7.669 0-14.438-3.828-18.5-9.688a23.24 23.24 0 0 0 3.781 4.969 22.923 22.923 0 0 0 15.469 5.969c12.703 0 23-10.298 23-23a22.92 22.92 0 0 0-5.969-15.469A23.216 23.216 0 0 0 36.31 5zm4.969 3.781A22.911 22.911 0 0 1 47.498 24.5c0 12.703-10.297 23-23 23a22.909 22.909 0 0 1-15.719-6.219C12.939 45.425 18.662 48 24.998 48c12.703 0 23-10.298 23-23 0-6.335-2.575-12.06-6.719-16.219z" opacity=".05"/>
  <path d="M41.28 8.781a22.923 22.923 0 0 1 5.969 15.469c0 12.703-10.297 23-23 23A22.92 22.92 0 0 1 8.78 41.281 22.911 22.911 0 0 0 24.499 47.5c12.703 0 23-10.298 23-23A22.909 22.909 0 0 0 41.28 8.781z" opacity=".1"/>
  <path d="M31.25 2.375C39.865 5.529 46 13.792 46 23.505c0 12.426-10.07 22.5-22.5 22.5-9.708 0-17.971-6.135-21.12-14.75a23 23 0 0 0 44.875-7 23 23 0 0 0-16-21.875z" opacity=".2"/>
  <path d="M24 1c12.703 0 23 10.297 23 23S36.703 47 24 47 1 36.703 1 24 11.297 1 24 1z" fill="url(#a)"/>
  <g>
    <path d="M40.03 7.531A22.922 22.922 0 0 1 45.999 23c0 12.703-10.297 23-23 23A22.92 22.92 0 0 1 7.53 40.031C11.708 44.322 17.54 47 23.999 47c12.703 0 23-10.298 23-23 0-6.462-2.677-12.291-6.969-16.469z" opacity=".1"/>
  </g>
  <g>
    <path d="M18.542 13a3.525 3.525 0 0 0-3.488 3H13.53a.53.53 0 0 0-.531.531v.938a.53.53 0 0 0 .53.531H15v2h-1.47a.53.53 0 0 0-.53.531v.938a.53.53 0 0 0 .53.531H15v2h-1.47a.53.53 0 0 0-.53.531v.938a.53.53 0 0 0 .53.531H15v2h-1.47a.53.53 0 0 0-.53.531v.938a.53.53 0 0 0 .53.531H15v2h-1.47a.53.53 0 0 0-.53.531v.938a.53.53 0 0 0 .53.531h1.524a3.526 3.526 0 0 0 3.488 3h12.914a3.525 3.525 0 0 0 3.488-3h1.168a.886.886 0 0 0 .887-.887v-2.227a.886.886 0 0 0-.887-.887h-1.113v-3h1.113a.886.886 0 0 0 .887-.887v-2.227a.886.886 0 0 0-.887-.887h-1.113v-3h1.113a.886.886 0 0 0 .887-.887v-2.227a.886.886 0 0 0-.887-.887h-1.168a3.526 3.526 0 0 0-3.488-3H18.542z" opacity=".1"/>
    <g transform="matrix(3.5433 0 0 3.5433 -.001 0)">
      <rect rx=".25" y="8.184" x="9.313" height="1.129" width=".847" fill="#45485b"/>
      <rect width=".847" height="1.129" x="9.313" y="6.209" rx=".25" fill="#e44933"/>
      <rect rx=".25" y="4.233" x="9.313" height="1.129" width=".847" fill="#ffca08"/>
      <rect rx="1" y="3.387" x="3.951" height="6.773" width="5.644" fill="#f9f9f9"/>
      <path d="M4.948 3.387a.993.993 0 0 0-.997.997v4.78c0 .554.443.997.997.997h.132V3.388z" fill="#b1c9c9"/>
      <rect width="1.129" height=".564" x="3.387" y="5.362" rx=".15" fill="#81584a"/>
      <rect rx=".15" y="6.491" x="3.387" height=".564" width="1.129" fill="#81584a"/>
      <rect width="1.129" height=".564" x="3.387" y="7.62" rx=".15" fill="#81584a"/>
      <rect rx=".15" y="8.749" x="3.387" height=".564" width="1.129" fill="#81584a"/>
      <rect rx=".15" y="4.233" x="3.387" height=".564" width="1.129" fill="#81584a"/>
      <path d="M6.819 8.746c-.412-.017-.691-.048-.906-.102-.247-.062-.423-.155-.495-.263-.05-.075-.059-.113-.055-.254.003-.119.003-.12.031-.178.069-.143.198-.265.435-.412.117-.073.359-.191.531-.259.171-.068.21-.095.247-.175a.202.202 0 0 0 .023-.108c0-.094-.017-.142-.075-.206a1.642 1.642 0 0 1-.401-1.037c0-.397.172-.707.474-.856a.902.902 0 0 1 .394-.096c.423-.016.772.218.891.6.063.201.064.47.004.707-.059.23-.191.492-.327.647-.071.081-.078.093-.093.162a.373.373 0 0 0 .012.219c.028.059.064.085.171.123.559.2.953.465 1.051.706.017.041.018.057.018.183 0 .134 0 .139-.022.184-.09.192-.374.315-.871.378a9.13 9.13 0 0 1-1.037.039z" fill="#6a6e84"/>
    </g>
  </g>
</svg>

<svg xmlns="http://www.w3.org/2000/svg" viewBox="0 0 48 48">
 <defs>
  <linearGradient id="linearGradient3764" x1="1" x2="47" gradientUnits="userSpaceOnUse" gradientTransform="matrix(0,-1,1,0,-1.5e-6,47.999998)">
   <stop style="stop-color:#ad897f;stop-opacity:1"/>
   <stop offset="1" style="stop-color:#b5948b;stop-opacity:1"/>
  </linearGradient>
 </defs>
 <g>
  <path d="m 36.31 5 c 5.859 4.062 9.688 10.831 9.688 18.5 c 0 12.426 -10.07 22.5 -22.5 22.5 c -7.669 0 -14.438 -3.828 -18.5 -9.688 c 1.037 1.822 2.306 3.499 3.781 4.969 c 4.085 3.712 9.514 5.969 15.469 5.969 c 12.703 0 23 -10.298 23 -23 c 0 -5.954 -2.256 -11.384 -5.969 -15.469 c -1.469 -1.475 -3.147 -2.744 -4.969 -3.781 z m 4.969 3.781 c 3.854 4.113 6.219 9.637 6.219 15.719 c 0 12.703 -10.297 23 -23 23 c -6.081 0 -11.606 -2.364 -15.719 -6.219 c 4.16 4.144 9.883 6.719 16.219 6.719 c 12.703 0 23 -10.298 23 -23 c 0 -6.335 -2.575 -12.06 -6.719 -16.219 z" style="opacity:0.05"/>
  <path d="m 41.28 8.781 c 3.712 4.085 5.969 9.514 5.969 15.469 c 0 12.703 -10.297 23 -23 23 c -5.954 0 -11.384 -2.256 -15.469 -5.969 c 4.113 3.854 9.637 6.219 15.719 6.219 c 12.703 0 23 -10.298 23 -23 c 0 -6.081 -2.364 -11.606 -6.219 -15.719 z" style="opacity:0.1"/>
  <path d="m 31.25 2.375 c 8.615 3.154 14.75 11.417 14.75 21.13 c 0 12.426 -10.07 22.5 -22.5 22.5 c -9.708 0 -17.971 -6.135 -21.12 -14.75 a 23 23 0 0 0 44.875 -7 a 23 23 0 0 0 -16 -21.875 z" style="opacity:0.2"/>
 </g>
 <g>
  <path d="m 24 1 c 12.703 0 23 10.297 23 23 c 0 12.703 -10.297 23 -23 23 -12.703 0 -23 -10.297 -23 -23 0 -12.703 10.297 -23 23 -23 z" style="fill:url(#linearGradient3764);fill-opacity:1"/>
 </g>
 <g>
  <path d="m 40.03 7.531 c 3.712 4.084 5.969 9.514 5.969 15.469 0 12.703 -10.297 23 -23 23 c -5.954 0 -11.384 -2.256 -15.469 -5.969 4.178 4.291 10.01 6.969 16.469 6.969 c 12.703 0 23 -10.298 23 -23 0 -6.462 -2.677 -12.291 -6.969 -16.469 z" style="opacity:0.1"/>
 </g>
 <g transform="matrix(3.543307,0,0,3.543307,-0.00118111,-1.1524056e-7)">
  <g transform="translate(0.2822222,0.28222215)" style="opacity:0.1">
   <path d="m 18.543,13 c -1.777,0 -3.226,1.299 -3.488,3 l -1.523,0 c -0.294,0 -0.531,0.237 -0.531,0.531 l 0,0.938 c 0,0.294 0.237,0.531 0.531,0.531 l 1.469,0 0,2 -1.469,0 c -0.294,0 -0.531,0.237 -0.531,0.531 l 0,0.938 c 0,0.294 0.237,0.531 0.531,0.531 l 1.469,0 0,2 -1.469,0 c -0.294,0 -0.531,0.237 -0.531,0.531 l 0,0.938 c 0,0.294 0.237,0.531 0.531,0.531 l 1.469,0 0,2 -1.469,0 c -0.294,0 -0.531,0.237 -0.531,0.531 l 0,0.938 c 0,0.294 0.237,0.531 0.531,0.531 l 1.469,0 0,2 -1.469,0 c -0.294,0 -0.531,0.237 -0.531,0.531 l 0,0.938 c 0,0.294 0.237,0.531 0.531,0.531 l 1.523,0 c 0.262,1.701 1.712,3 3.488,3 l 12.914,0 c 1.777,0 3.226,-1.299 3.488,-3 l 1.168,0 C 36.604,34 37,33.604 37,33.113 l 0,-2.227 c 0,-0.491 -0.396,-0.887 -0.887,-0.887 l -1.113,0 0,-3 1.113,0 c 0.491,0 0.887,-0.396 0.887,-0.887 l 0,-2.227 c 0,-0.491 -0.396,-0.887 -0.887,-0.887 l -1.113,0 0,-3 1.113,0 c 0.491,0 0.887,-0.396 0.887,-0.887 l 0,-2.227 c 0,-0.491 -0.396,-0.887 -0.887,-0.887 l -1.168,0 c -0.262,-1.701 -1.712,-3 -3.488,-3 l -12.914,0 z" transform="matrix(0.28222223,0,0,0.28222223,-0.2822222,-0.28222215)" style="fill:#000;fill-opacity:1;stroke:none"/>
  </g>
  <g>
   <rect rx="0.25" y="8.184" x="9.313" height="1.129" width="0.847" style="fill:#45485b;fill-opacity:1;stroke:none"/>
   <rect width="0.847" height="1.129" x="9.313" y="6.209" rx="0.25" style="fill:#e44933;fill-opacity:1;stroke:none"/>
   <rect rx="0.25" y="4.233" x="9.313" height="1.129" width="0.847" style="fill:#ffca08;fill-opacity:1;stroke:none"/>
   <rect rx="1" y="3.387" x="3.951" height="6.773" width="5.644" style="fill:#f9f9f9;fill-opacity:1;stroke:none"/>
   <path d="m 4.948 3.387 c -0.554 0 -0.997 0.443 -0.997 0.997 l 0 4.78 c 0 0.554 0.443 0.997 0.997 0.997 l 0.132 0 0 -6.773 z" style="fill:#b1c9c9;fill-opacity:1;stroke:none"/>
   <rect width="1.129" height="0.564" x="3.387" y="5.362" rx="0.15" style="fill:#81584a;fill-opacity:1;stroke:none"/>
   <rect rx="0.15" y="6.491" x="3.387" height="0.564" width="1.129" style="fill:#81584a;fill-opacity:1;stroke:none"/>
   <rect width="1.129" height="0.564" x="3.387" y="7.62" rx="0.15" style="fill:#81584a;fill-opacity:1;stroke:none"/>
   <rect rx="0.15" y="8.749" x="3.387" height="0.564" width="1.129" style="fill:#81584a;fill-opacity:1;stroke:none"/>
   <rect rx="0.15" y="4.233" x="3.387" height="0.564" width="1.129" style="fill:#81584a;fill-opacity:1;stroke:none"/>
   <path d="M 6.819,8.746 C 6.407,8.729 6.128,8.698 5.913,8.644 5.666,8.582 5.49,8.489 5.418,8.381 5.368,8.306 5.359,8.268 5.363,8.127 5.366,8.008 5.366,8.007 5.394,7.949 5.463,7.806 5.592,7.684 5.829,7.537 5.946,7.464 6.188,7.346 6.36,7.278 6.531,7.21 6.57,7.183 6.607,7.103 6.626,7.063 6.63,7.044 6.63,6.995 6.63,6.901 6.613,6.853 6.555,6.789 6.311,6.516 6.154,6.111 6.154,5.752 6.154,5.355 6.326,5.045 6.628,4.896 6.756,4.833 6.868,4.806 7.022,4.8 7.445,4.784 7.794,5.018 7.913,5.4 7.976,5.601 7.977,5.87 7.917,6.107 7.858,6.337 7.726,6.599 7.59,6.754 7.519,6.835 7.512,6.847 7.497,6.916 7.48,6.999 7.484,7.082 7.509,7.135 7.537,7.194 7.573,7.22 7.68,7.258 c 0.559,0.2 0.953,0.465 1.051,0.706 0.017,0.041 0.018,0.057 0.018,0.183 0,0.134 0,0.139 -0.022,0.184 C 8.637,8.523 8.353,8.646 7.856,8.709 7.637,8.737 7.074,8.758 6.819,8.748 Z" style="fill:#6a6e84;fill-opacity:1"/>
  </g>
 </g>
</svg>
